X:1
T:The Sound of Silence
H: 
B: https://musescore.com/georgewu/ptxsoundofsilence, https://musescore.com/abchords321/scores/5449091
C:Simon and Garfunkel (Pentatonix / Disturbed)
O:Transcribed by Kevin Fraser
Z:Kevin Fraser
Q:1/4=90
K:AMix
%K:AMix sound=A_B
%K:BbMix score=_BA %Concert Pitch
M:4/4
L:1/8
R:March
U: R = ///
U: r = //
U: V = !accent!
V:1 gstem=up stem=down name="Melody" sname=Melody
V:2 gstem=up stem=down name="Harmony" sname=Harmony % vol 60
V:3 gstem=up stem=down name="Harmony 2" sname=Harmony2 % vol 60
V:4 gstem=up stem=down name="Harmony 3" sname=Harmony3 % vol 60
V:5 dyn=down gstem=up stem=down grace=up clef=bass dyn=up name="Bass and Snare" sname=drums octave=-2
V:6 gstem=up stem=down name="B Guitar" sname=BGuit % vol 60
V:7 gstem=up stem=down name="Brass" sname=Brass % vol 60
V:S gstem=up stem=down name="Snare" sname=Snare % vol 60
V:T gstem=up stem=down name="Tenor" sname=Tenor % vol 60
V:B gstem=up stem=down name="Bass" sname=Bass % vol 60
V:P name="Piano" sname="Piano"
V:M name="Melody -9" sname="ASax" transpose=-9
V:8 name="Piano" sname="Piano"
% I:MIDI=program 110
%%MIDI gracedivider 8
%%MIDI gchord
%%MIDI beatstring
% %MIDI program 109 #bagpipes
%%MIDI vol 100
% %MIDI droneon

% %score {1 (2 3 4)}


[V:1]||  Z                         |    Z   |              Z               |  Z  |             Z              | 
[V:2]||  Z                         |    Z   |              Z               |  Z  |             Z              |
[V:3]||  Z                         |    Z   |              Z               |  Z  |             Z              | 
[V:4]|| z2 BB       dd        ff   | e8     | zA   AA      cc        ee    | d8  | zd dd      ff      aa      |
w:         Hel-lo Dark-ness my old | friend | I've come to talk with you a-|gain | Be cause a vi-sion soft-ly |


[V:1]| Z                         |    Z   |              Z               |  Z  |             Z              | 
[V:2]| Z                         |    Z   |              Z               |  Z  |             Z              | 
[V:3]| g2 g(f f4) | zd dd      ff      aa      |  g2 g(f f4) | aa          g6     |     gg   a(g g4)     | 
[V:4]| B2 B(A A4) | zd dd      ff      aa      |  B2 B(A A4) | dd          B6     |     Bc   d(d d4) |
w:   |  creep-ing | left its seeds while I was |  sleep-ing  | and the     vision |     that was planted |




[V:1]
[V:2]
[V:3]  a g  f6        |       g    f(f f4  | f5)       d d    d    | a7      c  | d(B B6)     ||
[V:4]  cB A6          |       B    A(f f4  | f5)       d d    d    | a7      c  | d(B B6)     ||
w:      in my brain   |      still remains |           within the  | sound   of | silence     ||


% %score {2 (1 3 4)}
[V:1]||  Z                         |    Z   |              Z               |  Z  |             Z              | 
[V:2]||  Z                         |    Z   |              Z               |  Z  |             Z              |
[V:3]||  Z                         |    Z   |              Z               |  Z  |             Z              | 
[V:4]|| z2 BB       dd        ff   | e8     | zA   AA      cc        ee    | d8  | zd dd      ff      aa      |
w:             In rest-less dreams I walked a-|lone       |      narrow streets of cobble| stone    |  beneath the ha-lo of a  |


[V:1]| Z                         |    Z   |              Z               |  Z  |             Z              | 
[V:2]| Z                         |    Z   |              Z               |  Z  |             Z              | 
[V:3]| g2 g(f f4) | zd dd      ff      aa      |  g2 g(f f4) | aa          g6     |     gg   a(g g4)     | 
[V:4]| B2 B(A A4) | zd dd      ff      aa      |  B2 B(A A4) | dd          B6     |     Bc   d(d d4) |
w:   |     street lamp| I  turned my collar to the | cold and damp  |

[V:1]
[V:2]
[V:3]a g  f6        |       g    f(f f4  | f5)       d d    d    | a7      c  | d(B B6)     ||
[V:4]  cB A6          |       B    A(f f4  | f5)       d d    d    | a7      c  | d(B B6)     ||
w:           When my Eyes were stabbed |     by the flash of a  | neon  light     |that  split the night     |    and touched the | sound of | silence        ||


% %score {4 (2 3 1)}
[V:1]||  Z                         |    Z   |              Z               |  Z  |             Z              | 
[V:2]||  Z                         |    Z   |              Z               |  Z  |             Z              |
[V:3]||  Z                         |    Z   |              Z               |  Z  |             Z              | 
[V:4]|| z2 BB       dd        ff   | e8     | zA   AA      cc        ee    | d8  | zd dd      ff      aa      |
w:          And in the naked light I | saw                     | ten thousand people maybe | more                       |


[V:1]| Z                         |    Z   |              Z               |  Z  |             Z              | 
[V:2]| Z                         |    Z   |              Z               |  Z  |             Z              | 
[V:3]| g2 g(f f4) | zd dd      ff      aa      |  g2 g(f f4) | aa          g6     |     gg   a(g g4)     | 
[V:4]| B2 B(A A4) | zd dd      ff      aa      |  B2 B(A A4) | dd          B6     |     Bc   d(d d4) |
w:            people talking without | speaking   |    People hearing without | listening.     People | writing       | M:4/4  songs   that | voices never share   |   and no one |   dared |


[V:1]
[V:2]
[V:3]a g  f6        |       g    f(f f4  | f5)       d d    d    | a7      c  | d(B B6)     ||
[V:4]  cB A6          |       B    A(f f4  | f5)       d d    d    | a7      c  | d(B B6)     ||
w:           disturb the | sound            of | silence        of | si-lence     of | si-lence_________||


% %score {1 (2 3 4)}
[V:1]||  Z                         |    Z   |              Z               |  Z  |             Z              | 
[V:2]||  Z                         |    Z   |              Z               |  Z  |             Z              |
[V:3]||  Z                         |    Z   |              Z               |  Z  |             Z              | 
[V:4]|| z2 BB       dd        ff   | e8     | zA   AA      cc        ee    | d8  | zd dd      ff      aa      |
w:    Fools said I you do not|             know           | Thou-sand Peo-ple May-be |    more             |


[V:1]| Z                         |    Z   |              Z               |  Z  |             Z              | 
[V:2]| Z                         |    Z   |              Z               |  Z  |             Z              | 
[V:3]| g2 g(f f4) | zd dd      ff      aa      |  g2 g(f f4) | aa          g6     |     gg   a(g g4)     | 
[V:4]| B2 B(A A4) | zd dd      ff      aa      |  B2 B(A A4) | dd          B6     |     Bc   d(d d4) |
w:     Hear my words that I might | teach you             | take my arms that I might | reach you      | but my   |   


[V:1]
[V:2]
[V:3]a g  f6        |       g    f(f f4  | f5)       d d    d    | a7      c  | d(B B6)     ||
[V:4]  cB A6          |       B    A(f f4  | f5)       d d    d    | a7      c  | d(B B6)     ||
w:                 words  like |  si-lent  rain drops fell__ |                        |
w:                 words  like | si-lent   rain drops fell__ |                        |
[V:4][M:4/4]     G,7        D, | G,8                         |  D6             A,2    |


w:             e-choed in the       | wells____of |  si-lence__   |

% %score {3 (2 1 4)}
w:    and the  peo-ple bowed and    | prayed       |    to the ne-on god | they made          | and the sign flashed out its | war-ning     |


% %score {3 (2 1 4)}
[V:1]||  Z                         |    Z   |              Z               |  Z  |             Z              | 
[V:2]||  Z                         |    Z   |              Z               |  Z  |             Z              |
[V:3]||  Z                         |    Z   |              Z               |  Z  |             Z              | 
[V:4]|| z2 BB       dd        ff   | e8     | zA   AA      cc        ee    | d8  | zd dd      ff      aa      |
w:   and the words that it was | for-ming____ | and the sign said the | 


% %score {3 (2 1 4)}
[V:1]| Z                         |    Z   |              Z               |  Z  |             Z              | 
[V:2]| Z                         |    Z   |              Z               |  Z  |             Z              | 
[V:3]| g2 g(f f4) | zd dd      ff      aa      |  g2 g(f f4) | aa          g6     |     g    g   agg     | 
[V:4]| B2 B(A A4) | zd dd      ff      aa      |  B2 B(A A4) | dd          B6     |     Bc   d(d d4) 
w:   words of the pro-phet are | written on the sub-way walls__| and tenement |


% %score {3 (2 1 4)}
[V:1]
[V:2]
[V:3]  a g  f6        |       g    f(f f4) |           d d    d    | a       c  | d(b b6)     ||
[V:4]  cB A6          |       B    A(f f4) |           d d    d    | a       c  | d(b b6)     ||
w:       ____halls         | and whispered in the | sound | of  si-lence     ||

V:5 dyn=down gstem=up stem=down grace=up clef=bass dyn=up name="Bass and Snare" sname=drums octave=-2
L:1/8
%%MIDI gracedivider 8
%%MIDI channel 10
%%MIDI program 0 
%%MIDI drummap c 38
%%MIDI drummap A 38
%%MIDI vol 50
%%MIDI drumon
|| Z34 | [V:5]|[AC]3/2 [AC]3/2 [AC]3/2 z2 e |

% abc2xml.py percussion maps
I:percmap C D 52 triangle
I:percmap A * 60 x
I:percmap c * 47 diamond
%
% abcm2ps / abc2svg percussion maps
%
%%map drummap C print=D heads=triangle
%%map drummap A heads=x_head
%%map drummap c heads=diamond
%


